src/assets/filled/Mask.svg

<svg width="24" height="24" viewBox="0 0 24 24"  xmlns="http://www.w3.org/2000/svg">
<path d="M16.2399 9.52023L20.9499 14.2302C21.2299 14.5102 21.7199 14.3602 21.7999 13.9702C21.9299 13.3302 21.9999 12.6702 21.9999 12.0002C21.9999 9.71023 21.2199 7.60023 19.9299 5.92023C19.7499 5.68023 19.3899 5.67023 19.1799 5.88023L16.2399 8.82023C16.0499 9.01023 16.0499 9.33023 16.2399 9.52023Z" />
<path d="M14.4801 10.58L12.7101 12.35C12.5101 12.55 12.5101 12.86 12.7101 13.06L18.5301 18.88C18.7301 19.08 19.0501 19.08 19.2401 18.88C19.8601 18.23 20.3901 17.5 20.8201 16.71C20.9201 16.52 20.8801 16.27 20.7301 16.12L15.1901 10.58C14.9901 10.39 14.6701 10.39 14.4801 10.58Z" />
<path d="M10.94 14.1198L9.18003 15.8798C8.98003 16.0798 8.98003 16.3898 9.18003 16.5898L14.1 21.5199C14.23 21.6499 14.42 21.6998 14.59 21.6498C15.52 21.3998 16.4 21.0199 17.2 20.5199C17.47 20.3499 17.51 19.9698 17.28 19.7398L11.65 14.1098C11.45 13.9298 11.13 13.9298 10.94 14.1198Z" />
<path d="M18.0799 4.07016C16.0999 2.54016 13.5299 1.74016 10.7699 2.07016C6.25991 2.61016 2.60991 6.27016 2.06991 10.7702C1.73991 13.5302 2.53991 16.0902 4.06991 18.0802C4.24991 18.3202 4.60991 18.3302 4.81991 18.1202L18.1199 4.82016C18.3299 4.61016 18.3199 4.25016 18.0799 4.07016Z" />
<path d="M7.39998 17.67L5.87998 19.19C5.66998 19.4 5.67998 19.76 5.91998 19.94C7.42998 21.11 9.27998 21.85 11.31 21.99C11.74 22.02 11.95 21.51 11.64 21.2L8.10998 17.67C7.91998 17.47 7.59998 17.47 7.39998 17.67Z" />
</svg>

<?xml version="1.0" encoding="UTF-8"?>
<svg width="24" height="24" viewBox="0 0 24 24" xmlns="http://www.w3.org/2000/svg">
 <path d="m16.24 9.5202 4.71 4.71c0.28 0.28 0.77 0.13 0.85-0.26 0.13-0.64 0.2-1.3 0.2-1.97 0-2.29-0.78-4.4-2.07-6.08-0.18-0.24-0.54-0.25-0.75-0.04l-2.94 2.94c-0.19 0.19-0.19 0.51 0 0.7z"/>
 <path d="m14.48 10.58-1.77 1.77c-0.2 0.2-0.2 0.51 0 0.71l5.82 5.82c0.2 0.2 0.52 0.2 0.71 0 0.62-0.65 1.15-1.38 1.58-2.17 0.1-0.19 0.06-0.44-0.09-0.59l-5.54-5.54c-0.2-0.19-0.52-0.19-0.71 0z"/>
 <path d="m10.94 14.12-1.76 1.76c-0.2 0.2-0.2 0.51 0 0.71l4.92 4.9301c0.13 0.13 0.32 0.1799 0.49 0.1299 0.93-0.25 1.81-0.6299 2.61-1.1299 0.27-0.17 0.31-0.5501 0.08-0.7801l-5.63-5.63c-0.2-0.18-0.52-0.18-0.71 0.01z"/>
 <path d="m18.08 4.0702c-1.98-1.53-4.55-2.33-7.31-2-4.51 0.54-8.16 4.2-8.7 8.7-0.33 2.76 0.47 5.32 2 7.31 0.18 0.24 0.54 0.25 0.75 0.04l13.3-13.3c0.21-0.21 0.2-0.57-0.04-0.75z"/>
 <path d="m7.4 17.67-1.52 1.52c-0.21 0.21-0.2 0.57 0.04 0.75 1.51 1.17 3.36 1.91 5.39 2.05 0.43 0.03 0.64-0.48 0.33-0.79l-3.53-3.53c-0.19-0.2-0.51-0.2-0.71 0z"/>
</svg>
